!!!COM: Peter Cornelius
!!!CNT: Deutsch
!!!TXO: Deutsch
!!!OTL: Denkst du an mich?
!!!LYR: Cornelius
!!!OPR: Six Songs
!!!OPS: Op.1
!!!ONM: No. 6
!!!ENC: Ben Fuhrman
!!!YOR: CD Sheet Music, Mid-Romantic German Lieder: The Ultimate Collection.
!!!YOR: CD Sheet Music, LLC 2001
!!!ODT: 1853 
!!NB: Only vocal melody encoded.
!!NB: First instance of melodic material only encoded.
!!created: 2/1/10 2:44PM
!!proofed and posted: 2/1/10 2:45PM
**kern	**silbe
*clef G2	*
*k[f#c#g#]	*
*M3/4	*
*MM[Ziemlich, schnell]	*
{8e	{Ein
=1	=1
8b	gru2-
8a#	-nes
4.b	Spinn-
8b	-chen
=2	=2
8cc#	gau-
8b#	-kel-
4.cc#	-te
8cc#	mir
=3	=3
4.dd	um
8cc#	die
8b	Schla2-
8a	-fe
=4	=4
4a	luf-
4g#}	-tig,}
8r	.
{8e	{und
=5	=5
8b	wieg-
8a#	-te
4.b	sich
8b	und
=6	=6
8.ccn	schau-
16b	-kel-
4.ccn	-te
8ccn	sich
=7	=7
4.dd	an
8ccn	dem
8b-	Fa2d-
8a	-chen
=8	=8
4a	duf-
4gn}	-tig:}
4r	.
=9	=9
{2.g#	{Denkst
=10	=10
2b	du
4e	am
=11	=11
2.cc#}	mich?}
=12	=12
{2.cc#	{O,
=13	=13
2.cc#	denkst
=14	=14
(2cc#	du
4b)	an
=15	=15
2a}	mich?}
4r	.
==	==
*-	*-
